X: 2106
T: LADY CHARLOTTE CAMPBELL
C:
Q: "Strathspey."
R: Strathspey.
%R: strathspey
B: James Kerr "Merry Melodies" v.2 p.14 #106
Z: 2016 John Chambers <jc:trillian.mit.edu>
M: C
L: 1/16
%%slurgraces yes
%%graceslurs yes
K: G
uc2 |\
{Bc}vd3vcuB3uG vAc3B3uc | vd3vcuB3uG EA3FD3 |\
{Bc}vd3vcuB3uG (Ac3) (Bcd2) | ve3vcuA3uF G6 ::\
ud2 |\
gfga vg3ud vB3vgud3ug |
agfe vf3ug aA3A3uf |\
[1 gfga vg3ud vB3vgud3uB | e3cA3F G6 :|\
[2 vg3vdub3uf g3de3c | Bd3 D3uF G6 |]
